icons/1_Primary/Linus Tech Tips.svg

<svg xmlns="http://www.w3.org/2000/svg" viewBox="0 0 1024 1024">
   <circle cx="512" cy="512" r="512" style="fill:#f15a29"/>
   <path d="M755.6 432.1c-10.9-33.4-29-64.7-52.7-91-.6-.7-1.1-1.4-1.1-1.5 0-.1-.1-.2-.2-.2s-1.2-1.1-2.5-2.4c-14.9-16-33.3-31.1-52.2-42.8-8.7-5.4-20.2-11.6-28.8-15.4-1.4-.6-2.5-1.2-2.5-1.3 0-.1-.2-.1-.3-.1s-1.3-.4-2.5-1c-12-5.2-24.8-9.5-37.7-12.7-48-12.1-99.2-10-145.8 5.8-32 10.9-61.7 28.2-87.2 50.8-15.1 13.4-28.7 28.6-40 44.8-27.1 38.5-42.7 83-45.7 130.5-.9 13.3-.6 28.2.7 41.5 4.8 49.6 23.6 96 54.7 134.9 2.8 3.4 4.5 5.5 8 9.5 1.4 1.6 2.5 3 2.5 3.1 0 .1.1.2.2.2s1.1 1 2.2 2.2c4.9 5.3 13.1 13.2 19 18.4 18.4 16 39.5 29.7 61.4 39.8 1.8.8 3.3 1.6 3.4 1.7.1.1.1.1.2.1 0 0 1.2.4 2.5.9 27.8 12 58.6 18.9 89.8 20.3 4 .2 17.7.2 21.5 0 34.2-1.5 66.1-9.1 96.3-22.9 27.2-12.5 52.7-30.2 74.3-51.8 40.6-40.5 66-92.3 73.1-148.9 4.7-38 1.1-76.6-10.6-112.5zm-416.2 79v167.7l-.7.2-.7.2-2.2-2.4c-38.4-41.1-61.1-93.6-64.7-149.5-1.9-29.8 1.7-59.5 10.6-88 10-32 27.2-62.3 49.7-87.5 2.1-2.3 6.9-7.6 7.6-8.2l.4-.4v167.9zm224.3-52.8v36.5c0 29.2 0 36.5.1 36.4.4-.2 51.5-17.2 51.6-17.2 0 0 .1 48.7.1 108.1v108.1l-1.6.7c-28.6 13.1-56.6 20.2-88.1 22.1-4.2.3-19.3.4-23.4.2-32.3-1.5-61.7-8.5-90.4-21.5l-3.3-1.5v-1.6l86.2-28.8c47.4-15.9 90.1-30.1 94.8-31.7l8.7-2.9v-36.4c0-21.8-.1-36.4-.1-36.4-.1 0-4.5 1.5-9.9 3.3-12.7 4.3-179.6 60.1-179.6 60.1V293.9l2.2-1c26-12 53-19.1 81.8-21.4 10.7-.9 24.9-1 35.9-.2 29.2 2 56.9 9 83.6 21.1l3.3 1.5v1.6l-94.8 31.7-94.8 31.7v73l25.8-8.6 25.8-8.6v200l34.6-11.6c19-6.4 34.6-11.6 34.6-11.6s.1-45 .1-100.1V391.3l69.6-23.3 69.6-23.3 1.2 1.3c10.1 10.5 21.2 24.8 29.7 38.4 4.1 6.5 10.9 18.7 10.6 19 0 0-36.9 12.4-81.9 27.5l-82 27.4zm189.1 70.6c-3.3 46.5-19.6 90.5-47.5 127.8-4.9 6.5-10.8 13.6-16 19.2-.7.8-2.1 2.2-3 3.2l-1.7 1.8v-190l32.3-10.8c17.8-5.9 32.4-10.8 32.5-10.8.2 0 .3.2 1.1 5.2 2.7 17.5 3.6 36.2 2.3 54.4z" style="fill:#fff"/>
</svg>

<svg width="1024" height="1024" viewBox="0 0 1024 1024" fill="none" xmlns="http://www.w3.org/2000/svg">
<g clip-path="url(#clip0_2_2688)">
<path d="M512 1024C794.77 1024 1024 794.77 1024 512C1024 229.23 794.77 0 512 0C229.23 0 0 229.23 0 512C0 794.77 229.23 1024 512 1024Z" fill="#F8C18C"/>
<path d="M755.6 432.1C744.7 398.7 726.6 367.4 702.9 341.1C702.3 340.4 701.8 339.7 701.8 339.6C701.8 339.5 701.7 339.4 701.6 339.4C701.5 339.4 700.4 338.3 699.1 337C684.2 321 665.8 305.9 646.9 294.2C638.2 288.8 626.7 282.6 618.1 278.8C616.7 278.2 615.6 277.6 615.6 277.5C615.6 277.4 615.4 277.4 615.3 277.4C615.2 277.4 614 277 612.8 276.4C600.8 271.2 588 266.9 575.1 263.7C527.1 251.6 475.9 253.7 429.3 269.5C397.3 280.4 367.6 297.7 342.1 320.3C327 333.7 313.4 348.9 302.1 365.1C275 403.6 259.4 448.1 256.4 495.6C255.5 508.9 255.8 523.8 257.1 537.1C261.9 586.7 280.7 633.1 311.8 672C314.6 675.4 316.3 677.5 319.8 681.5C321.2 683.1 322.3 684.5 322.3 684.6C322.3 684.7 322.4 684.8 322.5 684.8C322.6 684.8 323.6 685.8 324.7 687C329.6 692.3 337.8 700.2 343.7 705.4C362.1 721.4 383.2 735.1 405.1 745.2C406.9 746 408.4 746.8 408.5 746.9C408.6 747 408.6 747 408.7 747C408.7 747 409.9 747.4 411.2 747.9C439 759.9 469.8 766.8 501 768.2C505 768.4 518.7 768.4 522.5 768.2C556.7 766.7 588.6 759.1 618.8 745.3C646 732.8 671.5 715.1 693.1 693.5C733.7 653 759.1 601.2 766.2 544.6C770.9 506.6 767.3 468 755.6 432.1ZM339.4 511.1V678.8L338.7 679L338 679.2L335.8 676.8C297.4 635.7 274.7 583.2 271.1 527.3C269.2 497.5 272.8 467.8 281.7 439.3C291.7 407.3 308.9 377 331.4 351.8C333.5 349.5 338.3 344.2 339 343.6L339.4 343.2V511.1ZM563.7 458.3V494.8C563.7 524 563.7 531.3 563.8 531.2C564.2 531 615.3 514 615.4 514C615.4 514 615.5 562.7 615.5 622.1V730.2L613.9 730.9C585.3 744 557.3 751.1 525.8 753C521.6 753.3 506.5 753.4 502.4 753.2C470.1 751.7 440.7 744.7 412 731.7L408.7 730.2V728.6L494.9 699.8C542.3 683.9 585 669.7 589.7 668.1L598.4 665.2V628.8C598.4 607 598.3 592.4 598.3 592.4C598.2 592.4 593.8 593.9 588.4 595.7C575.7 600 408.8 655.8 408.8 655.8V293.9L411 292.9C437 280.9 464 273.8 492.8 271.5C503.5 270.6 517.7 270.5 528.7 271.3C557.9 273.3 585.6 280.3 612.3 292.4L615.6 293.9V295.5L520.8 327.2L426 358.9V431.9L451.8 423.3L477.6 414.7V614.7L512.2 603.1C531.2 596.7 546.8 591.5 546.8 591.5C546.8 591.5 546.9 546.5 546.9 491.4V391.3L616.5 368L686.1 344.7L687.3 346C697.4 356.5 708.5 370.8 717 384.4C721.1 390.9 727.9 403.1 727.6 403.4C727.6 403.4 690.7 415.8 645.7 430.9L563.7 458.3ZM752.8 528.9C749.5 575.4 733.2 619.4 705.3 656.7C700.4 663.2 694.5 670.3 689.3 675.9C688.6 676.7 687.2 678.1 686.3 679.1L684.6 680.9V490.9L716.9 480.1C734.7 474.2 749.3 469.3 749.4 469.3C749.6 469.3 749.7 469.5 750.5 474.5C753.2 492 754.1 510.7 752.8 528.9Z" fill="white"/>
</g>
<defs>
<clipPath id="clip0_2_2688">
<rect width="1024" height="1024" fill="white"/>
</clipPath>
</defs>
</svg>
